X: 1253
T: Kimbilir Belki Bir Gün
C: Murat Demirhan
O: Turkey
F: http://compmusic.upf.edu/node/140
N: askefza--sarki--sofyan--kimbilir_belki--murat_demirhan
N: makam= askefza
N: form= sarki
N: usul= sofyan = 4/4
M: 4/4
L: 1/16
K: C    
Q: 1/4=99
%%MIDI tuningsystem comma53
.c2z2 .B2z2 .c2z2 .A2z2  | .B2z2 .G2z2 A4 GFE2  | \
w:  S E R B  |  E S T M *  E  | 
.c2z2 .B2z2 .c2z2 .A2z2  | 
w:   | 
.B2z2 .G2z2 A4 GFE2  | z2e4f2 e2f2 c2d2  | \
w:   |   | 
e2e4f2 e2f2 c2d2  | 
w:   | 
e2e4a2 g2a2 g2f2  | .a4 .g4 .f4 .e4  | \
w:   |   | 
z2d4e2 d2e2 B2^c2  | d2d4e2 d2e2 B2^c2  | 
w:   |   | 
d2d4e2 f2e2 d2c2  | B4 A4 G2F2 E4  | \
w:   |   | 
.B4 .A4 .B4 .G4  | .A4 .F4 .G4 .E4  | \
w:   |   | 
.B4 .A4 .B4 .G4  | 
w:   | 
.A4 .F4 .G4 .E4  | z2e4f2 e8  | z2f4d2 f4 e4  | \
w:   |  Kim bi lir   |  bel ki  bir  gün   | 
z2e4a2 g2a6  | g2a2 f4 e8  | 
w:  sen  de  be ni   |  se ve cek sin    | 
B4 c4 d2f6  | z2f4d2 e4 d4  | c2B6 z8  | \
w:  Yap rak la rın   |  renk  de ğiş tir  |  di ği   | 
G4 B4 A2B4A2  | B4 G4 F4 E4  | 
w:  yağ mur lu  bir  gü  |  nün  ar dın dan    | 
G4 B4 A2B4A2  | B4 G4 F4 E4  | z2A4B2 c4 B4  | \
w:  SAZ  |   |  Saç la rın dan   | 
z4 c2^G2 A8  | A4 c4 A6B2  | 
w:  sü zü len   |  yağ mur  zer re  | 
^G4 A2F2 G8  | z2F4F2 F8  | z2F4E2 D2^C2 D4  | \
w:  cik le ri nin   |  göz ya şı   |  ol ma dı ğı nı    | 
E2F4E2 D8  | z2E4F2 G4 _7/8A4  | 
w:  Be nim  gi bi   |  ıs la nan  mer  | 
G6F2 E4 F4  | D16  | z2E4G2 F2F2 G4  | E16  | \
w:  mer le  bir lik  |  te   |  sen  de  bi le cek  |  sin    | 
.c2z2 .B2z2 .c2z2 .A2z2  | .B2z2 .G2z2 A4 GFE2  | 
w:  SAZ  |   | 
c2z2 B2z2 c2z2 A2z2  | B4 ^c4 d4 e4  | \
w:   |   | 
z4 e2^f2 g4 _7/8a4  | g2^f6 e8  | z2e4^f2 g4 f4  | 
w:  Sa na  ruh suz   |  de miş ler   |  sev gi den  yok  | 
_7/8a6g2 ^f4 e4  | g2_7/8a14  | g2_7/8a4g4^f2 g4  | e16  | \
w:  sun  de miş ler    |  Ya lan   |  ya lan  söy le miş  |  ler   | 
e2f6 e4 g4  | g2a2 f4 e8  | e2f6 e8  | 
w:  bu  za ten  sen   |  o la maz sın    |  U nut ma   | 
z2e4g2 ^f2g4f2  | e12 z4  | d4 e4 f4 e4  | \
w:  sen  de  be nim  gi  |  bi   |  top rak tan  gel  | 
d4 e4 ^f2g2 f2f2  | g4 e12  | e2d2 c2B2 A2G2 F2E2  | 
w:  miş  top ra ğa  dö ne  |  cek sin    |  SAZ  | 
z4 A2B2 c6A2  | B2G2 F4 F4 E4  | E2F4E2 D2D6  | \
w:  Ne re den  bi  |  le bi lir sin  ki   |  se nin le  gü len   | 
B2c4B2 A6B2  | c4 d4 B4 B2c2  | 
w:  se nin le  ağ la  |  yan  ben dim  bu nu   | 
d2e2 c4 B8  | z4 A2B2 c6B2  | c6B2 A8  | \
w:  bi le mez sin    |  Baş_ u cum da   |  yas tı ğım   | 
G2A6 B6A2  | z2B4A2 G2F6  | 
w:  du var lar da   |  göz le di ğim   | 
F2F6 F4 E4  | z2F4E2 D8  | F4 E12  | .c2z2 .B2z2 .c2z2 .A2z2  | \
w:  ki tap lar da   |  harf le rim   |  sen din    |  SAZ  | 
.B2z2 .G2z2 A4 GFE2  | 
w:   | 
.c2z2 .B2z2 .c2z2 .A2z2  | B4 d4 c4 B4  | \
w:   |   | 
e4 d4 z4 c2c2  | c2d4c2 d4 B4  | 
w:  Bir  de  gi de  |  ce ğim  di yor sun   | 
z2B4c2 d4 c4  | B16  | z2B4c2 d4 c2c2  | \
w:  sev gi siz  gel  |  din   |  sev gi siz  gi di  | 
d4 B12  | e2f4e2 e4 z4  | e4 f2e2 f4 d4  | 
w:  yor sun    |  Gü lün *  ce   |  mut lu  kı lar sın   | 
g6f2 e8  | e4 f4 ^g8  | ^g2a2 f4 e8  | z2e4f2 ^g4 a4  | \
w:  her ke si   |  sen  ruh suz   |  o la maz sın   |  sev gi siz  hiç   | 
^g2f2 g4 e8  | ^g2f2 e12  | 
w:  o la maz sın    |  Ne  o lur   | 
d4 f4 e6d2  | c2B6 z2B4c2  | d6c2 B8  | \
w:  sev gin  yok sa   |  da hî  şef ka  |  tin  ye ter    | 
z2A4B2 c2B6  | z2c4B2 A2B2 G4  | 
w:  Göz le ri nin   |  nem li li ği ni   | 
A2B6 z2A4B2  | A4 B2G4A2 F4  | E2F2 G2F8-F2  | F16  | \
w:  bu ruk  ağ la  |  mak lı  ha li ni   |  bi li yo rum    |   | 
e4 f2g2 f8  | f16  | 
w:  Sen  yü ce sin   |   | 
g4 a4 g6a2  | b6a2 g8  | a4 b4 b2b2 a4  | \
w:  kut sal sın  be  |  nim  i çin   |  en  son  kı rı lan   | 
b2c'4b4a2 g4  | e4 f4 g4 f4  | 
w:  ben  ol sam  da hî    |  Sen  her  şey sin   | 
a6g2 f8  | e16  | .A4 .F4 .G4 E4  | |


